src/assets/service-sign-4.svg

<svg xmlns="http://www.w3.org/2000/svg" height="512pt" viewBox="-6 0 512 512.00058" width="512pt" id="svg-1" fill-opacity="1" type="solidColor" fill="#ffffff"><path d="m433.433594 71.066406-49.433594 49.433594v-77.832031c-.027344-23.554688-19.113281-42.6406252-42.667969-42.667969h-298.664062c-23.554688.0273438-42.6406252 19.113281-42.667969 42.667969v34.132812c0 4.710938 3.820312 8.53125 8.535156 8.53125h59.730469v375.46875c.03125 28.265625 22.9375 51.171875 51.203125 51.199219h298.664062c28.265626-.027344 51.171876-22.933594 51.199219-51.199219v-25.601562c0-4.710938-3.820312-8.53125-8.53125-8.53125h-76.800781v-196.703125l104.167969-104.167969c15.113281-15.113281 15.113281-39.617187 0-54.730469-15.113281-15.113281-39.621094-15.113281-54.734375 0zm-365.167969-2.800781h-51.199219v-25.597656c0-14.140625 11.460938-25.601563 25.601563-25.601563 14.136719 0 25.597656 11.460938 25.597656 25.601563zm85.335937 366.933594v25.601562c0 18.851563-15.28125 34.132813-34.132812 34.132813s-34.136719-15.28125-34.136719-34.132813v-418.132812c-.03125-9.265625-3.105469-18.257813-8.753906-25.601563h264.753906c14.140625 0 25.601563 11.460938 25.601563 25.601563v94.898437l-116.964844 116.964844c-.085938.085938-.113281.195312-.1875.28125-.648438.691406-1.171875 1.484375-1.554688 2.347656 0 .09375-.113281.179688-.152343.28125l-.070313.128906-25.597656 68.265626c-1.664062 4.410156.566406 9.332031 4.976562 10.992187 1.941407.730469 4.082032.730469 6.019532 0l68.269531-25.601563.125-.066406c.09375 0 .179687-.105468.273437-.15625.863282-.378906 1.660157-.90625 2.347657-1.550781.085937-.078125.195312-.105469.28125-.1875l62.234375-62.234375v179.632812h-204.800782c-4.710937.003907-8.53125 3.824219-8.53125 8.535157zm105.734376-159.222657 23.894531 23.894532-38.273438 14.34375zm192.929687 167.757813v17.066406c0 18.851563-15.28125 34.132813-34.132813 34.132813h-260.53125c8.421876-9.375 13.074219-21.53125 13.066407-34.132813v-17.066406zm-153.597656-152.570313-30.601563-30.597656 128.734375-128.734375 30.601563 30.601563zm140.800781-140.796874-30.601562-30.601563 13.53125-13.535156 30.601562 30.601562zm36.632812-36.632813-11.035156 11.03125-30.597656-30.601563 11.03125-11.03125c8.585938-8.316406 22.285156-8.101562 30.601562.480469 8.128907 8.394531 8.128907 21.726563 0 30.121094zm0 0" id="path-2"></path><path d="m119.46875 375.464844h59.730469v17.070312h-59.730469zm0 0" id="path-3"></path><path d="m119.46875 307.199219h85.332031v17.066406h-85.332031zm0 0" id="path-4"></path><path d="m119.46875 238.933594h76.796875v17.066406h-76.796875zm0 0" id="path-5"></path><path d="m153.601562 170.667969h136.53125v17.066406h-136.53125zm0 0" id="path-6"></path><path d="m213.332031 238.933594h17.070313v17.066406h-17.070313zm0 0" id="path-7"></path><path d="m119.46875 170.667969h17.066406v17.066406h-17.066406zm0 0" id="path-8"></path><path d="m298.667969 375.464844h17.066406v17.070312h-17.066406zm0 0" id="path-9"></path><path d="m196.265625 375.464844h85.335937v17.070312h-85.335937zm0 0" id="path-10"></path><path d="m221.867188 34.132812h17.066406v17.066407h-17.066406zm0 0" id="path-11"></path><path d="m221.867188 119.464844h17.066406v17.070312h-17.066406zm0 0" id="path-12"></path><path d="m188.167969 55.171875 12.066406-12.070313 12.066406 12.070313-12.066406 12.066406zm0 0" id="path-13"></path><path d="m248.492188 115.5 12.066406-12.066406 12.070312 12.066406-12.070312 12.070312zm0 0" id="path-14"></path><path d="m179.199219 76.800781h17.066406v17.066407h-17.066406zm0 0" id="path-15"></path><path d="m264.535156 76.800781h17.066406v17.066407h-17.066406zm0 0" id="path-16"></path><path d="m188.160156 115.503906 12.066406-12.070312 12.070313 12.070312-12.070313 12.066406zm0 0" id="path-17"></path><path d="m248.5 55.167969 12.066406-12.066407 12.066406 12.066407-12.066406 12.070312zm0 0" id="path-18"></path></svg>

<svg xmlns="http://www.w3.org/2000/svg" height="512pt" viewBox="-6 0 512 512.001" width="512pt" fill="#fff"><path d="M433.434 71.066 384 120.5V42.668C383.973 19.113 364.887.028 341.332 0H42.668C19.113.027.028 19.113 0 42.668v34.133c0 4.71 3.82 8.531 8.535 8.531h59.73v375.469c.032 28.265 22.938 51.172 51.204 51.199h298.664c28.265-.027 51.172-22.934 51.199-51.2v-25.6c0-4.712-3.82-8.532-8.531-8.532H384V229.965l104.168-104.168c15.113-15.113 15.113-39.617 0-54.73-15.113-15.114-39.621-15.114-54.734 0zm-365.168-2.8h-51.2V42.668c0-14.14 11.461-25.602 25.602-25.602 14.137 0 25.598 11.461 25.598 25.602zm85.336 366.933v25.602c0 18.851-15.282 34.133-34.133 34.133S85.332 479.652 85.332 460.8V42.668a42.216 42.216 0 0 0-8.754-25.602h264.754c14.14 0 25.602 11.461 25.602 25.602v94.898L249.969 254.531c-.086.086-.114.196-.188.282a8.413 8.413 0 0 0-1.554 2.347c0 .094-.114.18-.153.281l-.07.13-25.598 68.265a8.529 8.529 0 0 0 4.977 10.992c1.941.73 4.082.73 6.02 0l68.269-25.601.125-.067c.094 0 .18-.105.273-.156a8.344 8.344 0 0 0 2.348-1.55c.086-.079.195-.106.281-.188l62.235-62.235v179.633H162.133c-4.711.004-8.531 3.824-8.531 8.535zm105.734-159.222 23.894 23.894-38.273 14.344zm192.93 167.757v17.067c0 18.851-15.282 34.133-34.133 34.133H157.602a51.023 51.023 0 0 0 13.066-34.133v-17.067zm-153.598-152.57-30.602-30.598 128.735-128.734 30.601 30.602zm140.8-140.797-30.6-30.601 13.53-13.536L453 136.832zm36.634-36.633-11.036 11.032-30.597-30.602L445.5 83.133c8.586-8.317 22.285-8.102 30.602.48 8.128 8.395 8.128 21.727 0 30.121zm0 0"/><path d="M119.469 375.465h59.73v17.07h-59.73zM119.469 307.2H204.8v17.066h-85.332zM119.469 238.934h76.797V256h-76.797zM153.602 170.668h136.53v17.066h-136.53zM213.332 238.934h17.07V256h-17.07zM119.469 170.668h17.066v17.066H119.47zM298.668 375.465h17.066v17.07h-17.066zM196.266 375.465h85.336v17.07h-85.336zM221.867 34.133h17.067v17.066h-17.067zM221.867 119.465h17.067v17.07h-17.067zM188.168 55.172l12.066-12.07 12.067 12.07-12.067 12.066zM248.492 115.5l12.067-12.066 12.07 12.066-12.07 12.07zM179.2 76.8h17.066v17.067h-17.067zM264.535 76.8h17.067v17.067h-17.067zM188.16 115.504l12.067-12.07 12.07 12.07-12.07 12.066zM248.5 55.168l12.066-12.066 12.067 12.066-12.067 12.07zm0 0"/></svg>
